X:36
T:La ronde du looby
R:Ronde
Z:Transcrit et/ou corrig? par Michel BELLON - 2007-04-06
Z:Pour toute observation mailto:galouvielle@free.fr
M:6/8
L:1/8
Q:3/8=114
K:G
V:1
""z4  |:"C" GGG B2G | "G"d3 z2z |
w:Nous chan-tons nous dan-sons
"G"GGG B2G | "D7"A3 z2z | "G"GGG B2G |
w:la ron-de du loo-by Nous chan-tons nous don-
"D7"d3 z2d | "D7"d2c B2A | "G"G3 z2D  || "G"G2G G2G |
w:sons ain-si chaqu' mer-cre-di Mets ta main droite de-
"G"G3 z2D | "G"B2B B2B | "G"B3 z2G |
w:vant Mets ta main droite der-ri?re se-
"D7"ddd ddd | "D7"d3 z2B | "D7"D2A G2F | "G"G3 g3 :|
w:coue cou cou cou cou cou cou  un tour et puis voi-l? Youp
V:2
z4 |: CDE  G2E | D3 z2z | 
CDE G2E | F3 z2z |  CDE  G2E | 
D3 z2 D | B2A G2F | G3 z2D || B2B B2B |
B3 z2D | D2D D2D | D3 z2B |
BGB BGB | B3 z2 G | B2c B2A | G3 G3 :|
<end>
<start>
